X: 1
T: The Snowy Path
R: slip jig
M: 9/8
L: 1/8
K: Dmaj
|"D"F2A B2F A2F|"G"G2B d2e dBA|"D"F2A B2F A2F|"Em"E2D E2F GFE|"D"F2A B2F A2F|"G"G2B d2e dBA|"D"F2A B2F A2F|"Em"E2D E2F GAB|||"A"c3 c2e d2c|"G"B2G B2c d2e|"Bm"f3 f2e d2B|"D"A2G F2G A2B|"A"c3 c2e d2c|"G"B2G B2c d2e|"D"d2A B2F A2F|"Em"E2D E2F GFE||


Tune 104	Setting 30183

